X:4
T: BIN I NET A PUERSCHLE
N: E1003
O: Europa, Mitteleuropa, Deutschland, Schwaben
R: Tanz - Lied
M: 2/4
L: 1/16
K: G
 | G3AB2c2 | d2B2d2z2 |
B2G2A2z2
G3AB2c2 | d2B2B2z2 |
B2G2A2z2
d2B2B2d2 | c2A2A2
c2 | B2G2G2B2 | A2F2D4 |
d2B2B2d2 | c2A2A2
c2 | B2G2G2B2 | A2F2D4 |
G3AB2c2 | d2B2d2z2 |
B2G2A2z2
G3AB2c2 | d2B2d2z2 |
B2G2A2z2
d2B2d2 | c2A2c2
B2G2B2 | A2F2A2
D3EF2 | G4z2
D3EF2 | G4z2

@@@ Tune index: 4688
